X:50
T: Der Nachtjaeger
N: Q0133F
O: Mitteleuropa, Deutschland / Frankreich, Lothringen
N: Anhaengsel an der vierten Zeile.
R: Ballade, Jagd, Flucht, Vergewaltigung, Tod
M: 2/4
L: 1/16
K: D
A2 | A4d2B2 | A3BA2F2 | G4G2B2 | A4z2
A2 | A4d2B2 | A3BA2F2 | G4G2B2 | A4z2
F2 | F2E2F2A2 | G2F2E2
D2 | F2E2F2A2 | G2F2E2D2 | A4A4 | F4z2

@@@ Tune index: 1548
